icons/paperclip-17.svg

<svg width="16" height="17" viewBox="0 0 16 17" fill="none" xmlns="http://www.w3.org/2000/svg">
<path fill-rule="evenodd" clip-rule="evenodd" d="M10.1543 3.22783C9.73169 3.22783 9.32641 3.3957 9.0276 3.69452L4.15023 8.57188C3.65225 9.06987 3.37249 9.74528 3.37249 10.4495C3.37249 11.1538 3.65225 11.8292 4.15023 12.3272C4.64822 12.8252 5.32363 13.1049 6.02788 13.1049C6.73214 13.1049 7.40755 12.8252 7.90553 12.3272L12.7829 7.44982C12.9902 7.24255 13.3262 7.24255 13.5335 7.44982C13.7407 7.65708 13.7407 7.99311 13.5335 8.20038L8.65609 13.0777C7.95905 13.7748 7.01365 14.1664 6.02788 14.1664C5.04211 14.1664 4.09672 13.7748 3.39967 13.0777C2.70263 12.3807 2.31104 11.4353 2.31104 10.4495C2.31104 9.46376 2.70263 8.51837 3.39967 7.82132L8.27704 2.94396C8.77491 2.44608 9.45018 2.16638 10.1543 2.16638C10.8584 2.16638 11.5336 2.44608 12.0315 2.94396C12.5294 3.44183 12.8091 4.11709 12.8091 4.82119C12.8091 5.52529 12.5294 6.20055 12.0315 6.69842L7.14883 11.5758C6.85013 11.8745 6.44501 12.0423 6.02258 12.0423C5.60015 12.0423 5.19502 11.8745 4.89632 11.5758C4.59762 11.2771 4.42981 10.872 4.42981 10.4495C4.42981 10.0271 4.59762 9.62198 4.89632 9.32328L9.4024 4.8225C9.60978 4.61536 9.94582 4.61556 10.153 4.82295C10.3601 5.03033 10.3599 5.36637 10.1525 5.5735L5.64688 10.0738C5.54738 10.1735 5.49126 10.3087 5.49126 10.4495C5.49126 10.5904 5.54724 10.7256 5.64688 10.8252C5.74652 10.9249 5.88166 10.9808 6.02258 10.9808C6.16349 10.9808 6.29863 10.9249 6.39827 10.8252L11.2809 5.94786C11.5796 5.64907 11.7476 5.24368 11.7476 4.82119C11.7476 4.3986 11.5798 3.99333 11.2809 3.69452C10.9821 3.3957 10.5769 3.22783 10.1543 3.22783Z" fill="#272431"/>
</svg>

<svg xmlns="http://www.w3.org/2000/svg" width="16" height="17" viewBox="0 0 16 17"><path fill-rule="evenodd" d="M10.154 3.228a1.59 1.59 0 00-1.126.467L4.15 8.572a2.655 2.655 0 003.756 3.755l4.877-4.877a.53.53 0 01.75.75l-4.877 4.878A3.717 3.717 0 113.4 7.82l4.877-4.877a2.655 2.655 0 113.755 3.754l-4.883 4.878a1.593 1.593 0 01-2.253-2.253l4.506-4.5a.53.53 0 01.75.75l-4.505 4.5a.532.532 0 00.751.752l4.883-4.877a1.594 1.594 0 00-1.127-2.72z"/></svg>
